X:115
T: WER HAT DIE SCHOENSTEN SCHAEFCHEN
N: F0234
O: Europa, Mitteleuropa, Deutschland
R: Jugend - Lied, Abend
M: 2/4
L: 1/16
K: D
D2 | D2D2E3E | F2A2d2
B2 | A2F2E2G2 | F6
D2 | D2D2E2E2 | F2A2d2
B2 | A2F2E2G2 | F6
F2 | E2E2A2c2 | c4B2
A2 | A2^G2F2E2 | E6
FG | A2A2G2F2 | E2B2G2
E2 | D2C2F2E2 | D6

